dist/img/icons/logo1.svg

<svg width="122" height="30" viewBox="0 0 122 30" fill="none" xmlns="http://www.w3.org/2000/svg">
<path fill-rule="evenodd" clip-rule="evenodd" d="M23.6694 0C29.2379 0 33.8335 4.19006 34.5093 9.60611C37.5887 10.8365 39.766 13.8601 39.766 17.395C39.766 22.0221 36.0361 25.7733 31.4355 25.7733L31.4159 25.7732H27.4611C27.4611 22.0481 27.4612 18.323 27.4612 14.598H31.3115C31.4507 14.598 31.5739 14.5464 31.6764 14.4432C31.7787 14.3404 31.83 14.2181 31.83 14.0763V10.136C31.83 9.99441 31.7781 9.87116 31.6764 9.76905C31.5748 9.6666 31.4523 9.61456 31.3115 9.61456C26.7982 9.61456 22.2855 9.61456 17.7723 9.61456C17.6315 9.61456 17.5089 9.6666 17.4072 9.76905C17.3057 9.87116 17.2536 9.99766 17.2536 10.136V14.0763C17.2536 14.2165 17.305 14.3404 17.4072 14.4432C17.5099 14.5464 17.6329 14.598 17.7723 14.598H21.5357V25.7732H15.4826C15.4826 20.5917 15.4826 15.4101 15.4826 10.2287C15.4826 10.0591 15.4213 9.91294 15.2986 9.78969C15.1763 9.6666 15.031 9.60498 14.8624 9.60498H10.1774C10.0088 9.60498 9.86341 9.6666 9.74086 9.78969C9.61814 9.91294 9.55719 10.0591 9.55719 10.2287C9.55719 15.4101 9.55719 20.5917 9.55719 25.7732H7.55931L7.54638 25.7733C3.37878 25.7733 0 22.3753 0 18.1839C0 14.9027 2.07111 12.1076 4.97051 11.0487C4.96356 10.9238 4.95984 10.7978 4.95984 10.6711C4.95984 6.9863 7.93069 3.9985 11.5952 3.9985C12.7048 3.9985 13.7503 4.27297 14.6697 4.75737C16.6404 1.88388 19.936 0 23.6694 0Z" fill="#F26135"/>
<path d="M53.6654 26C52.0614 26 50.7284 25.7735 49.6666 25.3202C48.6048 24.867 47.8105 24.2755 47.2834 23.5457C46.7564 22.8158 46.4776 22.0438 46.4471 21.2295C46.4471 21.0912 46.4928 20.976 46.5845 20.8838C46.6762 20.7916 46.7908 20.7456 46.9282 20.7456H50.5718C50.7857 20.7456 50.9537 20.78 51.076 20.8493C51.1982 20.9184 51.328 21.0143 51.4656 21.1373C51.603 21.3064 51.7634 21.4638 51.9468 21.6098C52.1301 21.7556 52.367 21.8709 52.6572 21.9555C52.9474 22.04 53.2835 22.0821 53.6654 22.0821C54.3682 22.0821 54.9105 21.9862 55.2924 21.7942C55.6744 21.6021 55.8654 21.3371 55.8654 20.9991C55.8654 20.7379 55.7622 20.5228 55.5559 20.3537C55.3498 20.1848 55.0022 20.0311 54.5133 19.8929C54.0245 19.7545 53.3598 19.6087 52.5196 19.455C51.3434 19.2552 50.3274 18.9594 49.4719 18.5677C48.6163 18.1758 47.9633 17.6457 47.5125 16.9775C47.0619 16.3092 46.8366 15.4833 46.8366 14.5001C46.8366 13.5014 47.1155 12.618 47.6729 11.8497C48.2306 11.0816 49.0097 10.4822 50.0103 10.0521C51.0111 9.62189 52.1759 9.40677 53.505 9.40677C54.6049 9.40677 55.5789 9.55279 56.4267 9.84466C57.2746 10.1365 57.9889 10.5168 58.5693 10.9855C59.1499 11.4541 59.5929 11.9572 59.8985 12.495C60.2041 13.0328 60.3644 13.5474 60.3798 14.0391C60.3798 14.1773 60.33 14.2965 60.2307 14.3963C60.1315 14.4962 60.0207 14.5461 59.8985 14.5461H56.0715C55.8882 14.5461 55.7356 14.5154 55.6133 14.4539C55.4911 14.3924 55.3689 14.2926 55.2466 14.1544C55.1702 13.9393 54.9792 13.7472 54.6738 13.5781C54.3682 13.4092 53.9786 13.3246 53.505 13.3246C52.9855 13.3246 52.5885 13.4129 52.3135 13.5897C52.0384 13.7664 51.901 14.0237 51.901 14.3617C51.901 14.5923 51.9849 14.7919 52.1531 14.9609C52.3211 15.13 52.619 15.2797 53.0467 15.4103C53.4745 15.5409 54.0703 15.683 54.8342 15.8366C56.2854 16.0518 57.4579 16.3591 58.3517 16.7586C59.2455 17.1579 59.8985 17.6804 60.3109 18.3257C60.7235 18.9709 60.9297 19.7776 60.9297 20.7456C60.9297 21.8364 60.6165 22.7735 59.9901 23.5571C59.3638 24.3407 58.5045 24.9438 57.4122 25.3663C56.3199 25.7888 55.0709 26 53.6654 26ZM63.4963 25.7696C63.3435 25.7696 63.206 25.7158 63.0837 25.6083C62.9617 25.5007 62.9005 25.3548 62.9005 25.1704V10.2365C62.9005 10.0674 62.9617 9.9253 63.0837 9.81018C63.206 9.6949 63.3435 9.63734 63.4963 9.63734H67.2314C67.3996 9.63734 67.5409 9.6949 67.6555 9.81018C67.77 9.9253 67.8274 10.0674 67.8274 10.2365V15.4449H72.5022V10.2365C72.5022 10.0674 72.5631 9.9253 72.6854 9.81018C72.8076 9.6949 72.9452 9.63734 73.098 9.63734H76.8331C77.0012 9.63734 77.1425 9.6949 77.2572 9.81018C77.3717 9.9253 77.429 10.0674 77.429 10.2365V25.1704C77.429 25.3394 77.3717 25.4815 77.2572 25.5968C77.1425 25.712 77.0012 25.7696 76.8331 25.7696H73.098C72.9452 25.7696 72.8076 25.712 72.6854 25.5968C72.5631 25.4815 72.5022 25.3394 72.5022 25.1704V19.8236H67.8274V25.1704C67.8274 25.3394 67.77 25.4815 67.6555 25.5968C67.5409 25.712 67.3996 25.7696 67.2314 25.7696H63.4963ZM80.8893 25.7696C80.7365 25.7696 80.5989 25.712 80.4767 25.5968C80.3546 25.4815 80.2935 25.3394 80.2935 25.1704V10.2365C80.2935 10.0674 80.3546 9.9253 80.4767 9.81018C80.5989 9.6949 80.7365 9.63734 80.8893 9.63734H92.118C92.2859 9.63734 92.4311 9.6949 92.5534 9.81018C92.6756 9.9253 92.7367 10.0674 92.7367 10.2365V12.9559C92.7367 13.1095 92.6756 13.2479 92.5534 13.3708C92.4311 13.4936 92.2859 13.555 92.118 13.555H85.037V15.8366H91.6138C91.7818 15.8366 91.927 15.8944 92.0492 16.0095C92.1715 16.1248 92.2326 16.2669 92.2326 16.4358V18.9249C92.2326 19.0939 92.1715 19.236 92.0492 19.3513C91.927 19.4664 91.7818 19.5241 91.6138 19.5241H85.037V21.8517H92.3013C92.4693 21.8517 92.6145 21.9132 92.7367 22.0361C92.8589 22.159 92.92 22.3051 92.92 22.474V25.1704C92.92 25.3394 92.8589 25.4815 92.7367 25.5968C92.6145 25.712 92.4693 25.7696 92.3013 25.7696H80.8893ZM95.8532 25.7696C95.7004 25.7696 95.5628 25.712 95.4406 25.5968C95.3185 25.4815 95.2574 25.3394 95.2574 25.1704V10.2365C95.2574 10.0674 95.3185 9.9253 95.4406 9.81018C95.5628 9.6949 95.7004 9.63734 95.8532 9.63734H106.898C107.066 9.63734 107.212 9.6949 107.334 9.81018C107.456 9.9253 107.517 10.0674 107.517 10.2365V13.1633C107.517 13.317 107.456 13.4552 107.334 13.5781C107.212 13.701 107.066 13.7625 106.898 13.7625H100.093V16.2976H106.44C106.608 16.2976 106.753 16.3552 106.876 16.4705C106.998 16.5857 107.059 16.7279 107.059 16.8968V19.8007C107.059 19.9696 106.998 20.1117 106.876 20.227C106.753 20.3422 106.608 20.3999 106.44 20.3999H100.093V25.1704C100.093 25.3394 100.035 25.4815 99.9207 25.5968C99.8061 25.712 99.6648 25.7696 99.4968 25.7696H95.8532ZM110.336 25.7696C110.183 25.7696 110.046 25.712 109.923 25.5968C109.801 25.4815 109.74 25.3394 109.74 25.1704V10.2365C109.74 10.0674 109.801 9.9253 109.923 9.81018C110.046 9.6949 110.183 9.63734 110.336 9.63734H121.381C121.549 9.63734 121.694 9.6949 121.817 9.81018C121.939 9.9253 122 10.0674 122 10.2365V13.1633C122 13.317 121.939 13.4552 121.817 13.5781C121.694 13.701 121.549 13.7625 121.381 13.7625H114.575V16.2976H120.923C121.091 16.2976 121.236 16.3552 121.358 16.4705C121.481 16.5857 121.542 16.7279 121.542 16.8968V19.8007C121.542 19.9696 121.481 20.1117 121.358 20.227C121.236 20.3422 121.091 20.3999 120.923 20.3999H114.575V25.1704C114.575 25.3394 114.518 25.4815 114.403 25.5968C114.289 25.712 114.148 25.7696 113.98 25.7696H110.336Z" fill="#F26135"/>
</svg>

<svg xmlns="http://www.w3.org/2000/svg" width="122" height="26" fill="currentColor" viewBox="0 0 122 26">
  <path d="M23.67 0c5.568 0 10.163 4.19 10.84 9.606a8.38 8.38 0 0 1 5.256 7.789c0 4.627-3.73 8.378-8.33 8.378H27.46V14.598h3.85a.5.5 0 0 0 .365-.155.502.502 0 0 0 .154-.367v-3.94a.504.504 0 0 0-.154-.367.498.498 0 0 0-.364-.154h-13.54a.499.499 0 0 0-.365.154.51.51 0 0 0-.153.367v3.94c0 .14.051.264.153.367a.5.5 0 0 0 .365.155h3.764v11.175h-6.053V10.23a.6.6 0 0 0-.184-.44.594.594 0 0 0-.437-.184h-4.685a.595.595 0 0 0-.436.185.6.6 0 0 0-.184.439v15.544h-2.01C3.38 25.773 0 22.375 0 18.183a7.59 7.59 0 0 1 4.97-7.134 6.798 6.798 0 0 1-.01-.378C4.96 6.986 7.93 4 11.595 4c1.11 0 2.155.274 3.075.758C16.64 1.884 19.936 0 23.67 0Z" clip-rule="evenodd"/>
  <path d="M53.665 26c-1.604 0-2.937-.227-3.998-.68-1.062-.453-1.857-1.044-2.384-1.774-.527-.73-.805-1.502-.836-2.316a.47.47 0 0 1 .481-.484h3.644c.214 0 .382.034.504.103.122.07.252.165.39.288.137.17.297.327.48.473.184.146.421.26.711.346.29.084.627.126 1.008.126.703 0 1.245-.096 1.627-.288.382-.192.573-.457.573-.795a.799.799 0 0 0-.31-.645c-.205-.17-.553-.323-1.042-.461a22.618 22.618 0 0 0-1.993-.438c-1.177-.2-2.193-.496-3.048-.887-.856-.392-1.509-.922-1.96-1.59-.45-.669-.675-1.495-.675-2.478 0-.999.278-1.882.836-2.65.558-.768 1.337-1.368 2.337-1.798 1.001-.43 2.166-.645 3.495-.645 1.1 0 2.074.146 2.922.438.848.291 1.562.672 2.142 1.14.58.47 1.024.972 1.33 1.51.305.538.465 1.052.48 1.544a.49.49 0 0 1-.148.357c-.1.1-.21.15-.333.15h-3.827a1.01 1.01 0 0 1-.458-.092 1.263 1.263 0 0 1-.366-.3c-.077-.215-.268-.407-.573-.576-.306-.169-.695-.253-1.169-.253-.52 0-.916.088-1.192.265a.861.861 0 0 0-.412.772c0 .23.084.43.252.599.168.169.466.319.894.45.428.13 1.023.272 1.787.426 1.451.215 2.624.522 3.518.922.894.399 1.547.921 1.959 1.567.413.645.619 1.452.619 2.42 0 1.09-.313 2.027-.94 2.811-.626.784-1.486 1.387-2.578 1.81-1.092.422-2.341.633-3.747.633Zm9.831-.23a.609.609 0 0 1-.412-.162.554.554 0 0 1-.184-.438V10.236c0-.169.062-.31.184-.426a.587.587 0 0 1 .412-.173h3.735c.169 0 .31.058.425.173a.58.58 0 0 1 .171.426v5.209h4.675v-5.209c0-.169.061-.31.183-.426a.586.586 0 0 1 .413-.173h3.735c.168 0 .31.058.424.173a.58.58 0 0 1 .172.426V25.17a.581.581 0 0 1-.172.427.575.575 0 0 1-.424.173h-3.735a.587.587 0 0 1-.413-.173.563.563 0 0 1-.183-.427v-5.346h-4.675v5.346a.582.582 0 0 1-.171.427.575.575 0 0 1-.425.173h-3.735Zm17.393 0a.587.587 0 0 1-.412-.173.563.563 0 0 1-.184-.427V10.236c0-.169.062-.31.184-.426a.586.586 0 0 1 .412-.173h11.229c.168 0 .313.058.435.173a.562.562 0 0 1 .184.426v2.72a.575.575 0 0 1-.184.415.594.594 0 0 1-.435.184h-7.081v2.282h6.577c.168 0 .313.057.435.172a.563.563 0 0 1 .184.427v2.489a.563.563 0 0 1-.184.426.614.614 0 0 1-.435.173h-6.577v2.328h7.264c.168 0 .314.061.436.184a.6.6 0 0 1 .183.438v2.696a.563.563 0 0 1-.183.427.613.613 0 0 1-.436.173H80.89Zm14.964 0a.587.587 0 0 1-.412-.173.563.563 0 0 1-.184-.427V10.236c0-.169.061-.31.184-.426a.586.586 0 0 1 .412-.173h11.045c.168 0 .314.058.436.173a.563.563 0 0 1 .183.426v2.927a.575.575 0 0 1-.183.415.594.594 0 0 1-.436.184h-6.805v2.536h6.347c.168 0 .313.057.436.173a.563.563 0 0 1 .183.426V19.8a.563.563 0 0 1-.183.426.616.616 0 0 1-.436.173h-6.347v4.77a.583.583 0 0 1-.172.427.574.574 0 0 1-.424.173h-3.644Zm14.483 0a.589.589 0 0 1-.413-.173.563.563 0 0 1-.183-.427V10.236c0-.169.061-.31.183-.426a.588.588 0 0 1 .413-.173h11.045c.168 0 .313.058.436.173a.563.563 0 0 1 .183.426v2.927a.575.575 0 0 1-.183.415.596.596 0 0 1-.436.184h-6.806v2.536h6.348c.168 0 .313.057.435.173a.56.56 0 0 1 .184.426V19.8a.56.56 0 0 1-.184.426.612.612 0 0 1-.435.173h-6.348v4.77a.58.58 0 0 1-.172.427.571.571 0 0 1-.423.173h-3.644Z"/>
</svg>
